X: 39981
T: Three Deer And A Hare
R: jig
M: 6/8
K: Edorian
|ecB dBA|B2d dBA|B3 DEF|AdB AFD|EFE E2:|??
|:B|edB BAF|E/F/GE EDB|DEF ABc|dfd Bgf|
edB BAF|E/F/GE EDB|DFA dAF|EFE E2:|
|:B|~e3 fdB|BAB def|edB BAF|ecB Bec|
Bde f2B/B/|ABc d3|cdB AFD|EFE E3:|
|:B|~e3 fdB|BAB def|edB BAF|ecB Bde|
f2B d2B|ABc d3|BdB AFD|EFE E3:|

